icons/redshift-light.svg

<svg width="256" height="256" viewBox="0 0 256 256" fill="none" xmlns="http://www.w3.org/2000/svg">
<path d="M196 0H60C26.8629 0 0 26.8629 0 60V196C0 229.137 26.8629 256 60 256H196C229.137 256 256 229.137 256 196V60C256 26.8629 229.137 0 196 0Z" fill="#F4F2ED"/>
<path d="M128.5 175.626L196.96 191.924V63.7129L128.5 80.0105V175.626Z" fill="#205B97"/>
<path d="M196.96 63.7129L210 70.2319V185.405L196.96 191.924V63.7129ZM128.5 175.626L60.04 191.924V63.7129L128.5 80.0105V175.626Z" fill="#5193CE"/>
<path d="M60.04 63.7129L47 70.2319V185.405L60.04 191.924V63.7129Z" fill="#205B97"/>
<path d="M145.89 218L171.97 204.962V51.0381L145.89 38L137.917 123.474L145.89 218Z" fill="#5193CE"/>
<path d="M111.11 218L85.03 204.962V51.0381L111.11 38L119.083 123.474L111.11 218Z" fill="#205B97"/>
<path d="M111.11 38H146.243V217.637H111.11V38Z" fill="#2E73B7"/>
</svg>

<svg xmlns="http://www.w3.org/2000/svg" width="256" height="256" fill="none"><path fill="#F4F2ED" d="M196 0H60C26.863 0 0 26.863 0 60v136c0 33.137 26.863 60 60 60h136c33.137 0 60-26.863 60-60V60c0-33.137-26.863-60-60-60"/><path fill="#205B97" d="m128.5 175.626 68.46 16.298V63.713L128.5 80.01z"/><path fill="#5193CE" d="M196.96 63.713 210 70.232v115.173l-13.04 6.519zM128.5 175.626l-68.46 16.298V63.713L128.5 80.01z"/><path fill="#205B97" d="M60.04 63.713 47 70.232v115.173l13.04 6.519z"/><path fill="#5193CE" d="m145.89 218 26.08-13.038V51.038L145.89 38l-7.973 85.474z"/><path fill="#205B97" d="m111.11 218-26.08-13.038V51.038L111.11 38l7.973 85.474z"/><path fill="#2E73B7" d="M111.11 38h35.133v179.637H111.11z"/></svg>
